;FLAVOR:Marlin
;TIME:4171
;Filament used: 9.53403m
;Layer height: 0.2
;MINX:3.413
;MINY:2.336
;MINZ:0.2
;MAXX:231.568
;MAXY:230
;MAXZ:3
;TARGET_MACHINE.NAME:ELEGOO NEPTUNE 4 Pro
;Generated with Cura_SteamEngine 5.9.1
M82 ;absolute extrusion mode
;ELEGOO NEPTUNE 4 / 4 PRO
M220 S100 ;Set the feed speed to 100%
M221 S100 ;Set the flow rate to 100%
M104 S140 ;Start heating extruder
M190 S60 ;Wait for the bed to reach print temp
G90
G28 ;home
G1 Z10 F300
G1 X67.5 Y0 F6000
G1 Z0 F300
M109 S220.0 ;Wait for extruder to reach print temp
G92 E0 ;Reset Extruder
G1 X67.5 Y0 Z0.4 F300 ;Move to start position
G1 X167.5 E30 F400 ;Draw the first line
G1 Z0.6 F120.0 ;Move to side a little
G1 X162.5 F3000
G92 E0 ;Reset Extruder
G92 E0
G92 E0
G1 F2700 E-0.5
;LAYER_COUNT:15
;LAYER:0
M107
G0 F3600 X14.719 Y230 Z0.2
;TYPE:SKIRT
G1 F2700 E0
G1 F2400 X14 Y229.807 E0.0325
G1 X12.55 Y229.273 E0.09995
G1 X11.429 Y228.735 E0.15423
G1 X9.869 Y227.796 E0.23372
G1 X8.869 Y227.025 E0.28884
G1 X7.736 Y225.98 E0.35613
G1 X6.916 Y225.076 E0.4094
G1 X6.232 Y224.19 E0.45827
G1 X5.317 Y222.748 E0.53282
G1 X4.844 Y221.824 E0.57813
G1 X4.307 Y220.519 E0.63974
G1 X3.872 Y219.107 E0.70423
G1 X3.676 Y218.222 E0.7438
G1 X3.451 Y216.498 E0.8197
G1 X3.413 Y215.597 E0.85907
G1 X3.535 Y213.464 E0.95234
G1 X3.73 Y212.35 E1.00171
G1 X4.162 Y210.726 E1.07506
G1 X4.565 Y209.634 E1.12588
G1 X5.074 Y208.537 E1.17867
G1 X5.869 Y207.167 E1.24782
G1 X6.634 Y206.096 E1.30527
G1 X7.311 Y205.287 E1.35132
G1 X80.572 Y132.009 E5.87469
G1 X80.032 Y130.679 E5.93735
G1 X79.428 Y128.984 E6.0159
G1 X78.922 Y127.323 E6.0917
G1 X78.488 Y125.643 E6.16744
G1 X78.126 Y123.946 E6.24319
G1 X77.831 Y122.22 E6.31963
G1 X77.619 Y120.499 E6.39533
G1 X77.474 Y118.754 E6.47177
G1 X77.414 Y117.02 E6.54751
G1 X77.428 Y115.286 E6.62321
G1 X77.51 Y113.537 E6.69964
G1 X77.656 Y111.966 E6.76852
G1 X77.91 Y110.089 E6.8512
G1 X78.181 Y108.578 E6.91821
G1 X78.608 Y106.675 E7.00335
G1 X79.016 Y105.173 E7.0713
G1 X79.6 Y103.342 E7.1552
G1 X80.178 Y101.773 E7.22819
G1 X80.864 Y100.136 E7.30567
G1 X81.623 Y98.536 E7.38298
G1 X82.437 Y96.981 E7.4596
G1 X83.311 Y95.483 E7.53531
G1 X84.215 Y94.074 E7.60839
G1 X85.253 Y92.601 E7.68705
G1 X86.304 Y91.239 E7.76215
G1 X87.438 Y89.894 E7.83895
G1 X88.481 Y88.757 E7.9063
G1 X89.85 Y87.389 E7.99079
G1 X91.05 Y86.291 E8.0618
G1 X92.474 Y85.096 E8.14295
G1 X93.729 Y84.133 E8.212
G1 X95.289 Y83.045 E8.29503
G1 X96.756 Y82.111 E8.37095
G1 X98.163 Y81.299 E8.44186
G1 X99.814 Y80.44 E8.52311
G1 X101.386 Y79.708 E8.59881
G1 X102.823 Y79.11 E8.66675
G1 X104.639 Y78.449 E8.75112
G1 X106.303 Y77.928 E8.82723
G1 X107.973 Y77.483 E8.90268
G1 X109.67 Y77.101 E8.97861
G1 X111.181 Y76.83 E9.04563
G1 X113.108 Y76.571 E9.13051
G1 X114.638 Y76.432 E9.19757
G1 X116.585 Y76.343 E9.28265
G1 X118.326 Y76.337 E9.35866
G1 X119.861 Y76.398 E9.42572
G1 X121.796 Y76.562 E9.51049
G1 X123.344 Y76.76 E9.57862
G1 X125.237 Y77.088 E9.66249
G1 X126.946 Y77.459 E9.73883
G1 X128.516 Y77.874 E9.80972
G1 X130.224 Y78.405 E9.8878
G1 X131.922 Y79.019 E9.96662
G1 X133.085 Y79.496 E10.02149
G1 X206.281 Y6.312 E14.53995
G1 X206.886 Y5.789 E14.57486
G1 X207.96 Y4.981 E14.63353
G1 X208.984 Y4.337 E14.68634
G1 X210.026 Y3.794 E14.73763
G1 X211.285 Y3.268 E14.7972
G1 X212.796 Y2.795 E14.86631
G1 X213.681 Y2.599 E14.90588
G1 X215.405 Y2.374 E14.98178
G1 X216.307 Y2.336 E15.02119
G1 X218.439 Y2.458 E15.11442
G1 X219.553 Y2.653 E15.16379
G1 X221.177 Y3.085 E15.23714
G1 X222.269 Y3.488 E15.28796
G1 X223.448 Y4.038 E15.34475
G1 X224.646 Y4.73 E15.40515
G1 X225.563 Y5.37 E15.45396
G1 X226.822 Y6.431 E15.52584
G1 X227.589 Y7.205 E15.5734
G1 X228.549 Y8.361 E15.639
G1 X229.258 Y9.384 E15.69333
G1 X229.811 Y10.341 E15.74158
G1 X230.514 Y11.86 E15.81465
G1 X230.823 Y12.712 E15.85422
G1 X231.254 Y14.332 E15.9274
G1 X231.453 Y15.454 E15.97714
G1 X231.568 Y17.699 E16.07527
G1 X231.469 Y19.257 E16.14342
G1 X231.25 Y20.531 E16.19985
G1 X230.828 Y22.11 E16.2712
G1 X230.425 Y23.202 E16.32201
G1 X229.875 Y24.383 E16.37888
G1 X229.205 Y25.543 E16.43736
G1 X228.356 Y26.74 E16.50143
G1 X227.679 Y27.549 E16.54748
G1 X154.417 Y100.827 E21.07087
G1 X154.965 Y102.179 E21.13456
G1 X155.562 Y103.853 E21.21214
G1 X156.068 Y105.513 E21.2879
G1 X156.502 Y107.193 E21.36364
G1 X156.864 Y108.89 E21.43939
G1 X157.159 Y110.616 E21.51583
G1 X157.371 Y112.336 E21.59148
G1 X157.516 Y114.081 E21.66792
G1 X157.576 Y115.816 E21.74371
G1 X157.562 Y117.55 E21.81941
G1 X157.48 Y119.299 E21.89584
G1 X157.314 Y121.028 E21.97166
G1 X157.08 Y122.748 E22.04744
G1 X156.809 Y124.259 E22.11445
G1 X156.382 Y126.162 E22.19959
G1 X155.96 Y127.709 E22.26959
G1 X155.39 Y129.494 E22.35139
G1 X154.812 Y131.063 E22.42439
G1 X154.126 Y132.7 E22.50187
G1 X153.367 Y134.3 E22.57917
G1 X152.553 Y135.855 E22.65579
G1 X151.68 Y137.35 E22.73137
G1 X150.744 Y138.815 E22.80726
G1 X149.821 Y140.128 E22.87732
G1 X148.701 Y141.581 E22.95741
G1 X147.594 Y142.893 E23.03235
G1 X146.37 Y144.221 E23.11119
G1 X145.156 Y145.432 E23.18604
G1 X143.923 Y146.56 E23.25899
G1 X142.517 Y147.74 E23.33912
G1 X141.242 Y148.718 E23.40927
G1 X139.701 Y149.791 E23.49124
G1 X138.234 Y150.723 E23.56711
G1 X136.807 Y151.547 E23.63905
G1 X135.175 Y152.397 E23.71937
G1 X133.604 Y153.128 E23.79502
G1 X132.167 Y153.726 E23.86296
G1 X130.351 Y154.387 E23.94732
G1 X128.687 Y154.908 E24.02344
G1 X127.018 Y155.353 E24.09885
G1 X125.321 Y155.735 E24.17478
G1 X123.809 Y156.007 E24.24184
G1 X121.864 Y156.266 E24.3275
G1 X120.142 Y156.413 E24.40295
G1 X118.405 Y156.494 E24.47886
G1 X116.664 Y156.499 E24.55486
G1 X115.129 Y156.438 E24.62192
G1 X113.194 Y156.274 E24.70669
G1 X111.646 Y156.076 E24.77482
G1 X109.753 Y155.748 E24.85869
G1 X108.044 Y155.377 E24.93503
G1 X106.474 Y154.962 E25.00592
G1 X104.766 Y154.431 E25.084
G1 X103.068 Y153.817 E25.16282
G1 X101.905 Y153.34 E25.2177
G1 X28.704 Y226.53 E29.73649
G1 X28.162 Y227 E29.76781
G1 X26.998 Y227.877 E29.83143
G1 X26.118 Y228.434 E29.8769
G1 X24.665 Y229.183 E29.94826
G1 X23.739 Y229.561 E29.99192
G1 X22.284 Y230 E30.05826
G0 F3600 X21.728 Y229.619
G1 F2400 X20.445 Y229.843 E30.11512
G1 X19.151 Y229.957 E30.17182
G1 X17.736 Y229.953 E30.23359
G1 X16.386 Y229.821 E30.29281
G1 X15.42 Y229.646 E30.33566
G1 X14.181 Y229.314 E30.39166
G1 X12.731 Y228.78 E30.45911
G1 X11.699 Y228.285 E30.50908
G1 X10.19 Y227.38 E30.58589
G1 X9.19 Y226.609 E30.64101
G1 X8.092 Y225.594 E30.70629
G1 X7.332 Y224.755 E30.75571
G1 X6.648 Y223.869 E30.80457
G1 X5.784 Y222.508 E30.87494
G1 X5.33 Y221.624 E30.91832
G1 X4.793 Y220.319 E30.97993
G1 X4.385 Y218.993 E31.04049
G1 X4.189 Y218.108 E31.08006
G1 X3.976 Y216.476 E31.15191
G1 X3.938 Y215.575 E31.19128
G1 X4.052 Y213.555 E31.2796
G1 X4.247 Y212.441 E31.32897
G1 X4.655 Y210.908 E31.39822
G1 X5.058 Y209.816 E31.44903
G1 X5.528 Y208.801 E31.49786
G1 X6.323 Y207.431 E31.567
G1 X7.037 Y206.433 E31.62057
G1 X7.714 Y205.624 E31.66662
G1 X81.189 Y132.134 E36.20314
G1 X80.519 Y130.482 E36.28096
G1 X79.93 Y128.831 E36.35748
G1 X79.43 Y127.192 E36.43228
G1 X79.001 Y125.533 E36.50709
G1 X78.643 Y123.858 E36.58186
G1 X78.352 Y122.156 E36.65724
G1 X78.142 Y120.456 E36.73201
G1 X77.999 Y118.736 E36.80736
G1 X77.939 Y117.024 E36.88214
G1 X77.952 Y115.311 E36.95692
G1 X78.033 Y113.586 E37.03231
G1 X78.179 Y112.015 E37.10118
G1 X78.427 Y110.182 E37.18193
G1 X78.698 Y108.671 E37.24894
G1 X79.115 Y106.813 E37.33207
G1 X79.523 Y105.311 E37.40001
G1 X80.093 Y103.523 E37.48194
G1 X80.662 Y101.976 E37.55389
G1 X81.338 Y100.361 E37.63032
G1 X82.088 Y98.779 E37.70675
G1 X82.89 Y97.246 E37.78227
G1 X83.753 Y95.767 E37.85703
G1 X84.657 Y94.358 E37.93011
G1 X85.669 Y92.922 E38.0068
G1 X86.72 Y91.56 E38.0819
G1 X87.825 Y90.249 E38.15674
G1 X88.852 Y89.128 E38.22311
G1 X90.205 Y87.776 E38.30661
G1 X91.388 Y86.693 E38.37662
G1 X92.794 Y85.513 E38.45675
G1 X94.049 Y84.55 E38.52581
G1 X95.571 Y83.488 E38.60683
G1 X97.019 Y82.566 E38.68176
G1 X98.406 Y81.765 E38.75168
G1 X100.036 Y80.916 E38.83191
G1 X101.588 Y80.193 E38.90665
G1 X103.025 Y79.595 E38.9746
G1 X104.796 Y78.95 E39.05688
G1 X106.438 Y78.435 E39.132
G1 X108.088 Y77.995 E39.20655
G1 X109.763 Y77.618 E39.2815
G1 X111.274 Y77.347 E39.34851
G1 X113.156 Y77.094 E39.43141
G1 X114.686 Y76.955 E39.49847
G1 X116.587 Y76.868 E39.58155
G1 X118.305 Y76.862 E39.65654
G1 X119.84 Y76.923 E39.7236
G1 X121.73 Y77.083 E39.80641
G1 X123.254 Y77.277 E39.87347
G1 X125.126 Y77.601 E39.95641
G1 X126.812 Y77.967 E40.03172
G1 X128.382 Y78.382 E40.10261
G1 X130.046 Y78.899 E40.17868
G1 X131.723 Y79.505 E40.25652
G1 X133.209 Y80.114 E40.32662
G1 X206.624 Y6.709 E44.85866
G1 X207.202 Y6.209 E44.89202
G1 X208.276 Y5.401 E44.9507
G1 X209.227 Y4.803 E44.99974
G1 X210.269 Y4.26 E45.05103
G1 X211.487 Y3.753 E45.10862
G1 X212.91 Y3.308 E45.17371
G1 X213.795 Y3.112 E45.21328
G1 X215.427 Y2.899 E45.28513
G1 X216.329 Y2.861 E45.32454
G1 X218.348 Y2.975 E45.41281
G1 X219.462 Y3.17 E45.46218
G1 X220.995 Y3.578 E45.53143
G1 X222.087 Y3.981 E45.58225
G1 X223.185 Y4.493 E45.63513
G1 X224.383 Y5.185 E45.69553
G1 X225.262 Y5.8 E45.74236
G1 X226.449 Y6.801 E45.81014
G1 X227.216 Y7.575 E45.85771
G1 X228.118 Y8.661 E45.91934
G1 X228.803 Y9.647 E45.97175
G1 X229.356 Y10.604 E46.02
G1 X230.02 Y12.039 E46.08902
G1 X230.329 Y12.891 E46.12859
G1 X230.737 Y14.424 E46.19784
G1 X230.936 Y15.546 E46.24758
G1 X231.044 Y17.666 E46.34025
G1 X230.945 Y19.224 E46.4084
G1 X230.743 Y20.396 E46.46032
G1 X230.335 Y21.928 E46.52953
G1 X229.932 Y23.02 E46.58034
G1 X229.42 Y24.12 E46.6333
G1 X228.75 Y25.28 E46.69178
G1 X227.953 Y26.403 E46.7519
G1 X227.276 Y27.212 E46.79795
G1 X153.8 Y100.702 E51.33449
G1 X154.471 Y102.355 E51.41237
G1 X155.06 Y104.006 E51.48889
G1 X155.56 Y105.645 E51.5637
G1 X155.989 Y107.303 E51.63846
G1 X156.347 Y108.978 E51.71323
G1 X156.638 Y110.68 E51.78861
G1 X156.848 Y112.379 E51.86334
G1 X156.991 Y114.099 E51.93868
G1 X157.051 Y115.812 E52.01351
G1 X157.038 Y117.525 E52.08829
G1 X156.957 Y119.249 E52.16363
G1 X156.794 Y120.957 E52.23853
G1 X156.563 Y122.655 E52.31334
G1 X156.292 Y124.166 E52.38035
G1 X155.875 Y126.024 E52.46348
G1 X155.46 Y127.549 E52.53247
G1 X154.897 Y129.313 E52.61331
G1 X154.328 Y130.86 E52.68526
G1 X153.652 Y132.475 E52.76169
G1 X152.902 Y134.057 E52.83812
G1 X152.1 Y135.59 E52.91364
G1 X151.238 Y137.067 E52.9883
G1 X150.314 Y138.513 E53.06321
G1 X149.405 Y139.807 E53.13224
G1 X148.285 Y141.26 E53.21233
G1 X147.208 Y142.537 E53.28525
G1 X145.999 Y143.849 E53.36314
G1 X144.785 Y145.06 E53.43799
G1 X143.585 Y146.158 E53.509
G1 X142.197 Y147.323 E53.5881
G1 X140.922 Y148.301 E53.65825
G1 X139.419 Y149.348 E53.73821
G1 X137.971 Y150.268 E53.8131
G1 X136.564 Y151.081 E53.88404
G1 X134.953 Y151.921 E53.96335
G1 X133.402 Y152.643 E54.03803
G1 X131.965 Y153.241 E54.10598
G1 X130.194 Y153.886 E54.18826
G1 X128.552 Y154.401 E54.26338
G1 X126.903 Y154.841 E54.33789
G1 X125.228 Y155.218 E54.41284
G1 X123.716 Y155.49 E54.4799
G1 X121.819 Y155.743 E54.56344
G1 X120.118 Y155.889 E54.63797
G1 X118.403 Y155.969 E54.71292
G1 X116.685 Y155.974 E54.78792
G1 X115.15 Y155.913 E54.85498
G1 X113.26 Y155.753 E54.93778
G1 X111.736 Y155.559 E55.00485
G1 X109.864 Y155.235 E55.08778
G1 X108.178 Y154.869 E55.1631
G1 X106.608 Y154.454 E55.23399
G1 X104.944 Y153.937 E55.31005
G1 X103.267 Y153.331 E55.38789
G1 X101.781 Y152.722 E55.458
G1 X28.36 Y226.133 E59.99041
G1 X27.818 Y226.603 E60.02172
G1 X26.717 Y227.433 E60.08191
G1 X25.837 Y227.99 E60.12738
G1 X24.465 Y228.697 E60.19476
G1 X23.587 Y229.058 E60.2362
G1 X21.728 Y229.619 E60.32097
G1 F2700 E59.82097
G0 F3600 X20.398 Y229.32
G1 F2700 E60.32097
G1 F2400 X19.152 Y229.432 E60.37558
G1 X17.737 Y229.428 E60.43735
G1 X16.48 Y229.304 E60.49249
G1 X15.514 Y229.129 E60.53534
G1 X14.362 Y228.821 E60.5874
G1 X12.957 Y228.306 E60.65272
G1 X11.968 Y227.834 E60.70056
G1 X10.511 Y226.964 E60.77464
G1 X9.511 Y226.193 E60.82976
G1 X8.481 Y225.241 E60.89099
G1 X7.748 Y224.434 E60.93858
G1 X7.064 Y223.548 E60.98745
G1 X6.251 Y222.267 E61.05368
G1 X5.816 Y221.424 E61.09509
G1 X5.279 Y220.119 E61.15669
G1 X4.898 Y218.879 E61.21332
G1 X4.702 Y217.994 E61.25289
G1 X4.501 Y216.454 E61.32069
G1 X4.463 Y215.553 E61.36005
G1 X4.569 Y213.646 E61.44343
G1 X4.764 Y212.532 E61.4928
G1 X5.148 Y211.09 E61.55794
G1 X5.551 Y209.998 E61.60876
G1 X6.004 Y209.022 E61.65573
G1 X6.75 Y207.736 E61.72063
G1 X7.44 Y206.77 E61.77245
G1 X8.117 Y205.961 E61.8185
G1 X81.806 Y132.259 E66.36817
G1 X81.006 Y130.285 E66.46115
G1 X80.432 Y128.678 E66.53564
G1 X79.938 Y127.06 E66.60949
G1 X79.514 Y125.423 E66.68331
G1 X79.16 Y123.769 E66.75715
G1 X78.873 Y122.091 E66.83146
G1 X78.665 Y120.413 E66.90527
G1 X78.524 Y118.717 E66.97957
G1 X78.464 Y117.028 E67.05335
G1 X78.476 Y115.336 E67.12721
G1 X78.556 Y113.635 E67.20155
G1 X78.702 Y112.064 E67.27042
G1 X78.944 Y110.275 E67.34923
G1 X79.215 Y108.764 E67.41624
G1 X79.622 Y106.951 E67.49736
G1 X80.03 Y105.449 E67.5653
G1 X80.586 Y103.704 E67.64525
G1 X81.146 Y102.179 E67.71617
G1 X81.812 Y100.586 E67.79154
G1 X82.553 Y99.022 E67.8671
G1 X83.343 Y97.511 E67.94153
G1 X84.195 Y96.051 E68.01532
G1 X85.099 Y94.642 E68.0884
G1 X86.085 Y93.243 E68.16312
G1 X87.122 Y91.898 E68.23726
G1 X88.212 Y90.604 E68.31111
G1 X89.239 Y89.483 E68.37748
G1 X90.559 Y88.163 E68.45897
G1 X91.726 Y87.095 E68.52803
G1 X93.114 Y85.93 E68.60714
G1 X94.369 Y84.967 E68.67619
G1 X95.853 Y83.931 E68.7552
G1 X97.282 Y83.021 E68.82916
G1 X98.649 Y82.231 E68.89808
G1 X100.258 Y81.392 E68.97729
G1 X101.79 Y80.678 E69.05108
G1 X103.227 Y80.08 E69.11902
G1 X104.953 Y79.451 E69.19922
G1 X106.573 Y78.942 E69.27335
G1 X108.203 Y78.507 E69.34699
G1 X109.856 Y78.135 E69.42096
G1 X111.367 Y77.864 E69.48797
G1 X113.204 Y77.617 E69.56888
G1 X114.734 Y77.478 E69.63595
G1 X116.589 Y77.393 E69.71701
G1 X118.284 Y77.387 E69.79101
G1 X119.819 Y77.448 E69.85807
G1 X121.664 Y77.604 E69.9389
G1 X123.188 Y77.798 E70.00596
G1 X125.015 Y78.114 E70.0869
G1 X126.678 Y78.475 E70.16119
G1 X128.248 Y78.89 E70.23208
G1 X129.868 Y79.393 E70.30613
G1 X131.524 Y79.991 E70.38299
G1 X133.333 Y80.732 E70.46833
G1 X206.968 Y7.106 E75.01398
G1 X207.518 Y6.629 E75.04576
G1 X208.592 Y5.821 E75.10443
G1 X209.47 Y5.269 E75.14971
G1 X210.512 Y4.726 E75.201
G1 X211.688 Y4.238 E75.25658
G1 X213.024 Y3.821 E75.31768
G1 X213.909 Y3.625 E75.35725
G1 X215.449 Y3.424 E75.42504
G1 X216.351 Y3.386 E75.46445
G1 X218.257 Y3.492 E75.54779
G1 X219.371 Y3.687 E75.59716
G1 X220.813 Y4.071 E75.6623
G1 X221.905 Y4.474 E75.71311
G1 X222.922 Y4.948 E75.76209
G1 X224.12 Y5.64 E75.82249
G1 X224.924 Y6.202 E75.86531
G1 X226.076 Y7.171 E75.93103
G1 X226.843 Y7.945 E75.97859
G1 X227.714 Y8.996 E76.03818
G1 X228.348 Y9.91 E76.08674
G1 X228.901 Y10.867 E76.13499
G1 X229.526 Y12.218 E76.19997
G1 X229.835 Y13.07 E76.23954
G1 X230.229 Y14.558 E76.30673
G1 X230.419 Y15.637 E76.35456
G1 X230.52 Y17.633 E76.4418
G1 X230.421 Y19.191 E76.50995
G1 X230.226 Y20.305 E76.55932
G1 X229.842 Y21.746 E76.62442
G1 X229.439 Y22.838 E76.67524
G1 X228.965 Y23.857 E76.7243
G1 X228.295 Y25.017 E76.78278
G1 X227.55 Y26.066 E76.83894
G1 X226.873 Y26.875 E76.88499
G1 X153.183 Y100.577 E81.43469
G1 X153.984 Y102.552 E81.52773
G1 X154.558 Y104.159 E81.60222
G1 X155.052 Y105.777 E81.67607
G1 X155.476 Y107.413 E81.74985
G1 X155.83 Y109.067 E81.82368
G1 X156.117 Y110.745 E81.898
G1 X156.325 Y112.422 E81.97177
G1 X156.466 Y114.118 E82.04606
G1 X156.526 Y115.808 E82.11988
G1 X156.514 Y117.5 E82.19375
G1 X156.434 Y119.199 E82.268
G1 X156.274 Y120.886 E82.34197
G1 X156.046 Y122.562 E82.41581
G1 X155.775 Y124.073 E82.48282
G1 X155.368 Y125.886 E82.56394
G1 X154.96 Y127.389 E82.63192
G1 X154.404 Y129.132 E82.71179
G1 X153.844 Y130.657 E82.78271
G1 X153.178 Y132.25 E82.85808
G1 X152.437 Y133.814 E82.93363
G1 X151.647 Y135.325 E83.00806
G1 X150.795 Y136.784 E83.08182
G1 X149.884 Y138.211 E83.15573
G1 X148.989 Y139.486 E83.22373
G1 X147.869 Y140.939 E83.30381
G1 X146.822 Y142.181 E83.37473
G1 X145.628 Y143.477 E83.45165
G1 X144.43 Y144.673 E83.52555
G1 X143.247 Y145.756 E83.59557
G1 X141.877 Y146.906 E83.67365
G1 X140.602 Y147.884 E83.7438
G1 X139.137 Y148.905 E83.82175
G1 X137.708 Y149.813 E83.89566
