;FLAVOR:Marlin
;TIME:6695
;Filament used: 15.1673m
;Layer height: 0.2
;MINX:39.717
;MINY:49.971
;MINZ:0.2
;MAXX:191.914
;MAXY:192.753
;MAXZ:16.6
;TARGET_MACHINE.NAME:ELEGOO NEPTUNE 4 Pro
;Generated with Cura_SteamEngine 5.9.1
M82 ;absolute extrusion mode
;ELEGOO NEPTUNE 4 / 4 PRO
M220 S100 ;Set the feed speed to 100%
M221 S100 ;Set the flow rate to 100%
M104 S140 ;Start heating extruder
M190 S60 ;Wait for the bed to reach print temp
G90
G28 ;home
G1 Z10 F300
G1 X67.5 Y0 F6000
G1 Z0 F300
M109 S220.0 ;Wait for extruder to reach print temp
G92 E0 ;Reset Extruder
G1 X67.5 Y0 Z0.4 F300 ;Move to start position
G1 X167.5 E30 F400 ;Draw the first line
G1 Z0.6 F120.0 ;Move to side a little
G1 X162.5 F3000
G92 E0 ;Reset Extruder
G92 E0
G92 E0
G1 F2700 E-0.5
;LAYER_COUNT:83
;LAYER:0
M107
G0 F3600 X104.717 Y66.131 Z0.2
;TYPE:SKIRT
G1 F2700 E0
G1 F2400 X104.049 Y66.131 E0.02916
G1 X102.65 Y66.44 E0.0917
G1 X102.487 Y66.507 E0.0994
G1 X101.092 Y67.37 E0.17101
G1 X100.304 Y68.315 E0.22472
G1 X99.658 Y69.485 E0.28306
G1 X99.375 Y70.9 E0.34606
G1 X99.383 Y86.679 E1.03487
G1 X99.431 Y87.112 E1.05389
G0 F3600 X99.959 Y87.112
G1 F2400 X99.908 Y86.679 E1.07292
G1 X99.9 Y70.953 E1.75942
G1 X100.157 Y69.666 E1.81672
G1 X100.739 Y68.613 E1.86924
G1 X101.441 Y67.771 E1.91709
G1 X102.763 Y66.953 E1.98496
G1 X104.108 Y66.656 E2.04509
G1 X105.056 Y66.656 E2.08647
G0 F3600 X105.276 Y67.181
G1 F2400 X104.167 Y67.181 E2.13488
G1 X102.964 Y67.447 E2.18867
G1 X101.788 Y68.174 E2.24902
G1 X101.177 Y68.907 E2.29068
G1 X100.656 Y69.85 E2.33771
G1 X100.425 Y71.006 E2.38917
G1 X100.433 Y86.679 E3.07336
G1 X100.488 Y87.112 E3.09241
G0 F3600 X101.018 Y87.112
G1 F2400 X100.954 Y86.612 E3.11442
G1 X100.95 Y71.059 E3.79337
G1 X101.155 Y70.034 E3.839
G1 X101.615 Y69.201 E3.88054
G1 X102.137 Y68.575 E3.91612
G1 X103.162 Y67.941 E3.96873
G1 X104.226 Y67.706 E4.0163
G1 X105.369 Y67.706 E4.0662
G0 F3600 X105.402 Y68.231
G1 F2400 X104.285 Y68.231 E4.11496
G1 X103.36 Y68.435 E4.15631
G1 X102.486 Y68.976 E4.20118
G1 X102.053 Y69.495 E4.23069
G1 X101.654 Y70.218 E4.26674
G1 X101.475 Y71.112 E4.30654
G1 X101.475 Y86.545 E4.98025
G1 X101.548 Y87.112 E5.0052
G0 F3600 X102.094 Y87.112
G1 F2400 X102 Y86.545 E5.03029
G1 X102 Y71.165 E5.70169
G1 X102.153 Y70.4 E5.73575
G1 X102.487 Y69.794 E5.76595
G1 X102.835 Y69.378 E5.78963
G1 X103.561 Y68.929 E5.82689
G1 X104.344 Y68.756 E5.8619
G1 X105.403 Y68.756 E5.90813
G0 F3600 X105.403 Y69.281
G1 F2400 X104.403 Y69.281 E5.95178
G1 X103.759 Y69.423 E5.98057
G1 X103.184 Y69.779 E6.01009
G1 X102.947 Y70.048 E6.02574
G1 X102.652 Y70.583 E6.05241
G1 X102.525 Y71.218 E6.08068
G1 X102.525 Y86.545 E6.74977
G1 X102.639 Y87.093 E6.7742
G0 F3600 X103.159 Y86.989
G1 F2400 X103.05 Y86.545 E6.79416
G1 X103.05 Y71.218 E7.46324
G1 X103.112 Y70.837 E7.48009
G1 X103.407 Y70.302 E7.50676
G1 X103.559 Y70.147 E7.51624
G1 X103.958 Y69.917 E7.53635
G1 X104.462 Y69.806 E7.55887
G1 X105.403 Y69.806 E7.59995
G1 F2700 E7.09995
G0 F3600 X105.403 Y70.856
G1 F2700 E7.59995
G1 F2400 X104.462 Y70.856 E7.64103
G1 X104.249 Y70.925 E7.65081
G1 X104.139 Y71.054 E7.65821
G1 X104.1 Y71.218 E7.66557
G1 X104.1 Y86.545 E8.33465
G0 F3600 X103.654 Y86.805
G1 F2400 X103.575 Y86.545 E8.34651
G1 X103.575 Y71.218 E9.0156
G1 X103.628 Y70.933 E9.02825
G1 X103.85 Y70.584 E9.04631
G1 X104.087 Y70.426 E9.05874
G1 X104.462 Y70.331 E9.07563
G1 X105.403 Y70.331 E9.11671
G1 F2700 E8.61671
G0 F3600 X122.87 Y66.971
G1 F2700 E9.11671
G1 F2400 X124.155 Y67.232 E9.17395
G1 X124.445 Y67.357 E9.18773
G1 X124.76 Y67.071 E9.20631
G1 X126.055 Y66.389 E9.2702
G1 X127.325 Y66.131 E9.32677
G1 X161.518 Y66.131 E10.81943
G1 X162.933 Y66.414 E10.88242
G1 X164.103 Y67.06 E10.94077
G1 X165.05 Y67.85 E10.9946
G1 X165.912 Y69.244 E11.06615
G1 X165.978 Y69.407 E11.07383
G1 X166.287 Y70.809 E11.1365
G1 X166.262 Y98.26 E12.33484
G1 X166.133 Y99.182 E12.37548
G1 X165.679 Y100.312 E12.42865
G1 X165.223 Y100.995 E12.4645
G1 X164.423 Y101.831 E12.51501
G1 X163.87 Y102.222 E12.54457
G1 X162.922 Y102.673 E12.5904
G1 X161.648 Y102.985 E12.64766
G1 X127.439 Y102.985 E14.14102
G1 X126.029 Y102.702 E14.2038
G1 X124.88 Y102.069 E14.26106
G1 X124.501 Y101.76 E14.28241
G1 X123.155 Y102.145 E14.34353
G1 X77.609 Y102.114 E16.33179
G1 X76.72 Y102.005 E16.37089
G1 X75.262 Y101.685 E16.43605
G1 X73.594 Y100.981 E16.51508
G1 X72.133 Y99.99 E16.59215
G1 X71.109 Y99.073 E16.65216
G1 X70.367 Y98.215 E16.70167
G1 X69.712 Y97.256 E16.75237
G1 X69.189 Y96.272 E16.80102
G1 X68.803 Y95.294 E16.84692
G1 X68.43 Y93.864 E16.91143
G1 X68.303 Y92.899 E16.95392
G1 X68.271 Y59.722 E18.40223
G1 X68.339 Y58.843 E18.44071
G1 X68.597 Y57.511 E18.49994
G1 X68.987 Y56.338 E18.5539
G1 X69.786 Y54.742 E18.63182
G1 X70.438 Y53.813 E18.68136
G1 X71.138 Y53.015 E18.7277
G1 X72.058 Y52.183 E18.78185
G1 X73.071 Y51.466 E18.83603
G1 X73.777 Y51.076 E18.87124
G1 X75.501 Y50.385 E18.95232
G1 X76.1 Y50.227 E18.97936
G1 X78.037 Y49.971 E19.06465
G1 X111.023 Y49.999 E20.50462
G1 X111.995 Y50.116 E20.54736
G1 X113.344 Y50.412 E20.60765
G1 X114.854 Y51.014 E20.67861
G1 X116.427 Y51.982 E20.75924
G1 X117.768 Y53.236 E20.83939
G1 X118.494 Y54.125 E20.88949
G1 X119.393 Y55.549 E20.96301
G1 X119.956 Y57.013 E21.03148
G1 X120.264 Y58.22 E21.08586
G1 X120.401 Y59.221 E21.12996
G1 X120.44 Y66.967 E21.46811
G1 X122.87 Y66.971 E21.57419
G1 F2700 E21.07419
G0 F3600 X124.051 Y67.746
G1 F2700 E21.57419
G1 F2400 X124.552 Y67.998 E21.59867
G1 X125.005 Y67.535 E21.62695
G1 X126.231 Y66.889 E21.68744
G1 X127.38 Y66.656 E21.73862
G1 X161.465 Y66.656 E23.22657
G1 X162.752 Y66.913 E23.28386
G1 X163.805 Y67.495 E23.33638
G1 X164.647 Y68.197 E23.38424
G1 X165.465 Y69.52 E23.45214
G1 X165.762 Y70.867 E23.51235
G1 X165.742 Y98.187 E24.70498
G1 X165.622 Y99.046 E24.74284
G1 X165.212 Y100.067 E24.79087
G1 X164.812 Y100.665 E24.82228
G1 X164.08 Y101.43 E24.8685
G1 X163.601 Y101.769 E24.89412
G1 X162.747 Y102.175 E24.93539
G1 X161.584 Y102.46 E24.98767
G1 X127.492 Y102.46 E26.47592
G1 X126.211 Y102.203 E26.53295
G1 X125.133 Y101.609 E26.58668
G1 X124.567 Y101.128 E26.61911
G1 X124.189 Y101.303 E26.63729
G1 X123.081 Y101.62 E26.6876
G1 X77.672 Y101.593 E28.66988
G1 X76.833 Y101.492 E28.70677
G1 X75.421 Y101.182 E28.76988
G1 X73.848 Y100.518 E28.84441
G1 X72.428 Y99.555 E28.91931
G1 X71.461 Y98.683 E28.97615
G1 X70.801 Y97.919 E29.02023
G1 X70.146 Y96.96 E29.07092
G1 X69.677 Y96.077 E29.11457
G1 X69.311 Y95.16 E29.15767
G1 X68.951 Y93.795 E29.2193
G1 X68.824 Y92.83 E29.26179
G1 X68.795 Y59.76 E30.70542
G1 X68.855 Y58.941 E30.74127
G1 X69.095 Y57.677 E30.79743
G1 X69.485 Y56.504 E30.8514
G1 X70.217 Y55.042 E30.92277
G1 X70.833 Y54.159 E30.96977
G1 X71.533 Y53.361 E31.01611
G1 X72.362 Y52.611 E31.06491
G1 X73.325 Y51.926 E31.1165
G1 X74.031 Y51.536 E31.15171
G1 X75.635 Y50.893 E31.22715
G1 X76.234 Y50.735 E31.25419
G1 X78.037 Y50.496 E31.33359
G1 X110.961 Y50.52 E32.77085
G1 X111.883 Y50.629 E32.81138
G1 X113.187 Y50.915 E32.86966
G1 X114.621 Y51.487 E32.93705
G1 X116.106 Y52.401 E33.01317
G1 X117.361 Y53.568 E33.08798
G1 X118.087 Y54.457 E33.13809
G1 X118.919 Y55.78 E33.20632
G1 X119.447 Y57.143 E33.27012
G1 X119.755 Y58.35 E33.3245
G1 X119.876 Y59.224 E33.36302
G1 X119.916 Y67.074 E33.70571
G1 X119.998 Y67.273 E33.7151
G1 X120.133 Y67.418 E33.72375
G1 X120.403 Y67.492 E33.73597
G1 X122.82 Y67.496 E33.84149
G1 X124.051 Y67.746 E33.89632
G1 F2700 E33.39632
G0 F3600 X125.32 Y67.963
G1 F2700 E33.89632
G1 F2400 X126.41 Y67.389 E33.9501
G1 X127.435 Y67.181 E33.99575
G1 X161.412 Y67.181 E35.47898
G1 X162.568 Y67.412 E35.53045
G1 X163.511 Y67.933 E35.57748
G1 X164.244 Y68.544 E35.61913
G1 X164.971 Y69.72 E35.67949
G1 X165.237 Y70.925 E35.73336
G1 X165.222 Y98.114 E36.92026
G1 X165.111 Y98.91 E36.95535
G1 X164.746 Y99.818 E36.99807
G1 X164.398 Y100.339 E37.02542
G1 X163.735 Y101.032 E37.06729
G1 X163.375 Y101.295 E37.08675
G1 X162.57 Y101.678 E37.12567
G1 X161.52 Y101.935 E37.17286
G1 X127.545 Y101.935 E38.656
G1 X126.393 Y101.704 E38.70729
G1 X125.433 Y101.175 E38.75514
G1 X124.818 Y100.652 E38.79038
G1 X124.685 Y100.487 E38.79963
G1 X124.045 Y100.798 E38.83069
G1 X123.007 Y101.095 E38.87783
G1 X77.734 Y101.072 E40.85417
G1 X76.946 Y100.979 E40.88881
G1 X75.58 Y100.679 E40.94986
G1 X74.102 Y100.055 E41.0199
G1 X72.723 Y99.12 E41.09263
G1 X71.857 Y98.338 E41.14356
G1 X71.234 Y97.622 E41.18499
G1 X70.61 Y96.714 E41.23309
G1 X70.141 Y95.831 E41.27674
G1 X69.818 Y95.025 E41.31464
G1 X69.472 Y93.726 E41.37333
G1 X69.345 Y92.761 E41.41581
G1 X69.319 Y59.798 E42.85478
G1 X69.379 Y58.979 E42.89063
G1 X69.593 Y57.843 E42.94109
G1 X69.983 Y56.67 E42.99505
G1 X70.649 Y55.341 E43.05995
G1 X71.228 Y54.505 E43.10434
G1 X71.928 Y53.707 E43.15068
G1 X72.667 Y53.038 E43.19419
G1 X73.579 Y52.386 E43.24313
G1 X74.285 Y51.996 E43.27834
G1 X75.769 Y51.401 E43.34814
G1 X76.368 Y51.243 E43.37518
G1 X78.037 Y51.021 E43.44868
G1 X110.901 Y51.042 E44.88333
G1 X111.771 Y51.142 E44.92155
G1 X113.03 Y51.418 E44.97782
G1 X114.388 Y51.96 E45.04165
G1 X115.785 Y52.82 E45.11326
G1 X116.954 Y53.9 E45.18274
G1 X117.68 Y54.789 E45.23284
G1 X118.447 Y56.015 E45.29597
G1 X118.939 Y57.274 E45.35498
G1 X119.235 Y58.425 E45.40686
G1 X119.351 Y59.227 E45.44224
G1 X119.391 Y67.017 E45.78231
G1 X119.421 Y67.251 E45.79261
G1 X119.539 Y67.538 E45.80615
G1 X119.724 Y67.774 E45.81924
G1 X119.906 Y67.9 E45.82891
G1 X120.334 Y68.017 E45.84827
G1 X122.765 Y68.021 E45.9544
G1 X123.947 Y68.261 E46.00705
G1 X124.646 Y68.651 E46.04199
G1 X125.32 Y67.963 E46.08404
G0 F3600 X125.637 Y68.389
G1 F2400 X124.96 Y69.08 E46.12627
G1 X124.779 Y69.381 E46.1416
G1 X124.541 Y69.193 E46.15484
G1 X123.761 Y68.759 E46.1938
G1 X122.714 Y68.546 E46.24045
G1 X120.264 Y68.542 E46.3474
G1 X119.681 Y68.382 E46.37379
G1 X119.358 Y68.158 E46.39095
G1 X119.081 Y67.806 E46.4105
G1 X118.909 Y67.388 E46.43023
G1 X118.866 Y67.054 E46.44493
G1 X118.831 Y59.302 E46.78334
G1 X118.715 Y58.5 E46.81872
G1 X118.431 Y57.406 E46.86806
G1 X117.977 Y56.253 E46.92215
G1 X117.235 Y55.067 E46.98322
G1 X116.549 Y54.234 E47.03033
G1 X115.465 Y53.239 E47.09456
G1 X114.155 Y52.433 E47.16171
G1 X112.873 Y51.921 E47.22197
G1 X111.659 Y51.655 E47.27622
G1 X110.901 Y51.567 E47.30954
G1 X78.037 Y51.546 E48.74418
G1 X76.498 Y51.752 E48.81196
G1 X75.963 Y51.889 E48.83607
G1 X74.539 Y52.456 E48.90298
G1 X73.833 Y52.846 E48.93819
G1 X72.974 Y53.464 E48.98438
G1 X72.323 Y54.053 E49.02271
G1 X71.623 Y54.851 E49.06905
G1 X71.082 Y55.638 E49.11074
G1 X70.453 Y56.904 E49.17245
G1 X70.092 Y58.006 E49.22307
G1 X69.903 Y59.017 E49.26797
G1 X69.843 Y59.836 E49.30382
G1 X69.866 Y92.692 E50.73811
G1 X69.993 Y93.657 E50.7806
G1 X70.306 Y94.831 E50.83364
G1 X70.605 Y95.585 E50.86905
G1 X71.074 Y96.468 E50.9127
G1 X71.666 Y97.323 E50.95809
G1 X72.211 Y97.95 E50.99436
G1 X73.018 Y98.685 E51.04201
G1 X74.356 Y99.592 E51.11257
G1 X75.74 Y100.176 E51.17815
G1 X77.059 Y100.466 E51.2371
G1 X77.794 Y100.55 E51.2694
G1 X122.932 Y100.57 E53.23985
G1 X123.861 Y100.304 E53.28203
G1 X124.518 Y99.985 E53.31392
G1 X124.812 Y99.727 E53.33099
G1 X125.158 Y100.252 E53.35844
G1 X125.733 Y100.741 E53.39139
G1 X126.575 Y101.205 E53.43336
G1 X127.598 Y101.41 E53.4789
G1 X161.456 Y101.41 E54.95694
G1 X162.395 Y101.18 E54.99914
G1 X163.15 Y100.821 E55.03564
G1 X163.413 Y100.617 E55.05017
G1 X163.984 Y100.012 E55.08648
G1 X164.28 Y99.569 E55.10974
G1 X164.6 Y98.774 E55.14715
G1 X164.702 Y98.042 E55.17942
G1 X164.712 Y70.983 E56.36065
G1 X164.477 Y69.918 E56.40826
G1 X163.843 Y68.893 E56.46087
G1 X163.217 Y68.371 E56.49645
G1 X162.384 Y67.911 E56.53799
G1 X161.359 Y67.706 E56.58362
G1 X127.49 Y67.706 E58.06214
G1 X126.586 Y67.889 E58.1024
G1 X125.637 Y68.389 E58.14923
G1 F2700 E57.64923
G0 F3600 X126.765 Y68.389
G1 F2700 E58.14923
G1 F2400 X125.952 Y68.817 E58.18934
G1 X125.335 Y69.447 E58.22783
G1 X124.912 Y70.264 E58.26799
G1 X124.741 Y70.036 E58.28043
G1 X124.286 Y69.652 E58.30642
G1 X123.575 Y69.256 E58.34195
G1 X122.664 Y69.071 E58.38253
G1 X120.205 Y69.067 E58.48988
G1 X119.719 Y68.96 E58.5116
G1 X119.431 Y68.848 E58.52509
G1 X118.995 Y68.545 E58.54827
G1 X118.622 Y68.072 E58.57456
G1 X118.397 Y67.523 E58.60047
G1 X118.341 Y67.091 E58.61948
G1 X118.311 Y59.377 E58.95623
G1 X118.195 Y58.575 E58.99161
G1 X117.942 Y57.598 E59.03566
G1 X117.506 Y56.49 E59.08764
G1 X116.79 Y55.346 E59.14656
G1 X116.145 Y54.57 E59.1906
G1 X115.145 Y53.659 E59.24966
G1 X113.922 Y52.906 E59.31235
G1 X112.717 Y52.425 E59.36899
G1 X111.546 Y52.168 E59.42133
G1 X110.842 Y52.089 E59.45225
G1 X78.037 Y52.071 E60.88432
G1 X76.628 Y52.261 E60.94639
G1 X76.093 Y52.398 E60.97049
G1 X74.734 Y52.943 E61.03441
G1 X74.089 Y53.304 E61.06668
G1 X73.282 Y53.889 E61.11019
G1 X72.718 Y54.399 E61.14339
G1 X72.018 Y55.197 E61.18972
G1 X71.516 Y55.934 E61.22865
G1 X70.924 Y57.136 E61.28714
G1 X70.592 Y58.167 E61.33443
G1 X70.427 Y59.055 E61.37385
G1 X70.367 Y59.874 E61.4097
G1 X70.387 Y92.623 E62.83932
G1 X70.514 Y93.588 E62.88181
G1 X70.813 Y94.694 E62.93183
G1 X71.069 Y95.34 E62.96216
G1 X71.506 Y96.169 E63.00307
G1 X72.098 Y97.024 E63.04847
G1 X72.565 Y97.562 E63.07957
G1 X73.372 Y98.297 E63.12722
G1 X74.608 Y99.128 E63.19224
G1 X75.9 Y99.673 E63.25345
G1 X77.172 Y99.953 E63.31031
G1 X77.852 Y100.028 E63.34017
G1 X122.857 Y100.045 E65.30482
G1 X123.677 Y99.81 E65.34205
G1 X124.289 Y99.513 E65.37175
G1 X124.94 Y98.835 E65.41278
G1 X125.044 Y99.091 E65.42485
G1 X125.498 Y99.852 E65.46353
G1 X126.033 Y100.307 E65.49419
G1 X126.757 Y100.706 E65.53027
G1 X127.651 Y100.885 E65.57008
G1 X161.392 Y100.885 E67.043
G1 X162.22 Y100.682 E67.08022
G1 X162.874 Y100.371 E67.11183
G1 X163.031 Y100.257 E67.1203
G1 X163.602 Y99.652 E67.15662
G1 X163.812 Y99.325 E67.17358
G1 X164.089 Y98.638 E67.20592
G1 X164.182 Y97.97 E67.23536
G1 X164.187 Y71.041 E68.41092
G1 X163.983 Y70.116 E68.45227
G1 X163.442 Y69.242 E68.49714
G1 X162.923 Y68.809 E68.52665
G1 X162.2 Y68.41 E68.56269
G1 X161.306 Y68.231 E68.6025
G1 X127.545 Y68.231 E70.0763
G1 X126.765 Y68.389 E70.11104
G0 F3600 X127.595 Y68.756
G1 F2400 X126.945 Y68.888 E70.13999
G1 X126.268 Y69.244 E70.17338
G1 X125.766 Y69.757 E70.20472
G1 X125.415 Y70.434 E70.23801
G1 X125.277 Y71.253 E70.27426
G1 X125.346 Y71.892 E70.30232
G1 X125.347 Y96.99 E71.39795
G1 X125.292 Y97.868 E71.43635
G1 X125.429 Y98.644 E71.47075
G1 X125.495 Y98.822 E71.47903
G1 X125.905 Y99.509 E71.51396
G1 X126.333 Y99.873 E71.53849
G1 X126.939 Y100.207 E71.56869
G1 X127.704 Y100.36 E71.60275
G1 X161.328 Y100.36 E73.07057
G1 X162.045 Y100.184 E73.1028
G1 X162.649 Y99.897 E73.13199
G1 X163.22 Y99.292 E73.16831
G1 X163.325 Y99.129 E73.17677
G1 X163.578 Y98.502 E73.20629
G1 X163.662 Y97.898 E73.23291
G1 X163.662 Y71.1 E74.40274
G1 X163.489 Y70.317 E74.43775
G1 X163.04 Y69.591 E74.47501
G1 X162.624 Y69.243 E74.49869
G1 X162.018 Y68.909 E74.5289
G1 X161.253 Y68.756 E74.56295
G1 X127.595 Y68.756 E76.03226
G1 F2700 E75.53226
G0 F3600 X125.02 Y71.94
G1 F2700 E76.03226
G1 F2400 X125.021 Y97.058 E77.12876
G1 X124.937 Y97.662 E77.15538
G1 X124.684 Y98.289 E77.18489
G1 X124.576 Y98.455 E77.19354
G1 X123.974 Y99.082 E77.23148
G1 X123.489 Y99.318 E77.25503
G1 X122.783 Y99.52 E77.28708
G1 X77.907 Y99.506 E79.2461
G1 X77.285 Y99.44 E79.2734
G1 X76.06 Y99.17 E79.32816
G1 X74.858 Y98.663 E79.38511
G1 X73.724 Y97.908 E79.44458
G1 X72.96 Y97.216 E79.48958
G1 X72.529 Y96.724 E79.51814
G1 X71.97 Y95.923 E79.56078
G1 X71.556 Y95.144 E79.59929
G1 X71.319 Y94.555 E79.627
G1 X71.035 Y93.519 E79.6739
G1 X70.908 Y92.554 E79.71638
G1 X70.891 Y59.912 E81.14134
G1 X70.951 Y59.093 E81.17719
G1 X71.093 Y58.325 E81.21128
G1 X71.396 Y57.366 E81.25518
G1 X71.95 Y56.23 E81.31036
G1 X72.452 Y55.493 E81.34928
G1 X73.072 Y54.787 E81.3903
G1 X73.592 Y54.313 E81.42102
G1 X74.348 Y53.761 E81.46188
G1 X74.931 Y53.43 E81.49115
G1 X76.223 Y52.907 E81.55199
G1 X76.758 Y52.77 E81.5761
G1 X78.037 Y52.596 E81.63245
G1 X110.786 Y52.611 E83.06207
G1 X111.434 Y52.681 E83.09052
G1 X112.56 Y52.928 E83.14085
G1 X113.689 Y53.379 E83.19392
G1 X114.826 Y54.079 E83.25221
G1 X115.791 Y54.958 E83.30919
G1 X116.345 Y55.625 E83.34704
G1 X117.035 Y56.727 E83.4038
G1 X117.453 Y57.79 E83.45366
G1 X117.675 Y58.65 E83.49243
